X: 1
T:P\'adraig O'Keefe's Slide
R:slide
Z:id:hn-slide-38
M:6/8
K:D
F2A ABA|G2B BAG|F2A A2F|E2F D2E|
F2A ABA|G2B BAG|e2d cde|1 d2A B2A:|2 d2A d2e||
|:f2A f2A|g2B g2f|e2d c2d|e2d cBA|
f2A f2A|g2B g2f|e2d cde|1 d2A d2e:|2 d2A B2A||
